public/images/ic_good_service.svg

<svg width="39" height="45" viewBox="0 0 39 45" xmlns="http://www.w3.org/2000/svg"><title>ic_Box</title><g fill="none" fill-rule="evenodd"><path d="M0 11.253L19.486 22.5l19.486-11.247L19.486 0 0 11.253z" fill="#818182"/><path d="M19.486 45l19.486-11.247v-22.5L19.486 22.5V45z" fill="#DCDBDB"/><path d="M0 33.753L19.486 45V22.5L0 11.253v22.5z" fill="#606161"/><path d="M4.885 14.072v11.249l9.729 5.619V19.69L34.1 8.44l-9.743-5.451L4.885 14.072z" fill="#818182"/><path d="M14.614 19.69L34.1 8.44l-9.59-5.538-19.625 11.17 9.729 5.618z" fill="#DCDBDB"/><g fill="#C1C1BF"><path d="M10.042 17.052l-.609-.354L28.924 5.451l.62.357-19.502 11.244zM10.042 28.299l-.609-.351v-11.25l.609.354v11.247z"/></g></g></svg>

<?xml version="1.0" encoding="UTF-8" standalone="no"?>
<svg width="39px" height="45px" viewBox="0 0 39 45" version="1.1" xmlns="http://www.w3.org/2000/svg" xmlns:xlink="http://www.w3.org/1999/xlink">
    <!-- Generator: Sketch 3.6.1 (26313) - http://www.bohemiancoding.com/sketch -->
    <title>ic_Box</title>
    <desc>Created with Sketch.</desc>
    <defs></defs>
    <g id="Page-2" stroke="none" stroke-width="1" fill="none" fill-rule="evenodd">
        <g id="Artboard-6" transform="translate(-23.000000, -215.000000)">
            <g id="ic_Box" transform="translate(23.000000, 215.000000)">
                <g id="Layer_1">
                    <g id="Group">
                        <path d="M0,11.253 L19.486,22.5 L38.972,11.253 L19.486,0 L0,11.253 Z" id="Shape" fill="#818182"></path>
                        <path d="M19.486,45 L38.972,33.753 L38.972,11.253 L19.486,22.5 L19.486,45 Z" id="Shape" fill="#DCDBDB"></path>
                        <path d="M0,33.753 L19.486,45 L19.486,22.5 L0,11.253 L0,33.753 Z" id="Shape" fill="#606161"></path>
                        <path d="M4.885,14.072 L4.885,25.321 L14.614,30.94 L14.614,19.69 L34.1,8.44 L24.357,2.989 L4.885,14.072 Z" id="Shape" fill="#818182"></path>
                        <path d="M14.614,19.69 L34.1,8.44 L24.51,2.902 L4.885,14.072 L14.614,19.69 Z" id="Shape" fill="#DCDBDB"></path>
                        <g transform="translate(9.000000, 5.000000)" id="Shape" fill="#C1C1BF">
                            <path d="M1.042,12.052 L0.433,11.698 L19.924,0.451 L20.544,0.808 L1.042,12.052 Z"></path>
                            <path d="M1.042,23.299 L0.433,22.948 L0.433,11.698 L1.042,12.052 L1.042,23.299 Z"></path>
                        </g>
                    </g>
                </g>
            </g>
        </g>
    </g>
</svg>
